X:31
T:Bugle March,The Quick. RH.031
T:Quick Bugle March,The. RH.031
R:March
S:Rev.R.Harrison’s MS,c1815,Cumbria
N:I have added the introductory rest. PJH.
O:England
A:Temple Sowerby,Cumbria
Z:vmp.Simon Wilson. Review PJH, 2008.
M:2/4
L:1/16
Q:1/4=100
K:D
z2|d2fa d2fa|d4 f2a2|g2bg e2c2|dcde d4|\
d2fa d2fa|d4 f2a2|g2bg e2c2|d6:|!
|:fa|gfge dcec|defg abc’d’|c’bag fedc|ecfd A3f|\
gfge dcec|defg abc’d’|c’bag fedc|d4 z2:|!
|:A2|d2d2 f2f2|a2a2 f2d2|f2d2 f2d2|a2A2 A2d’2|\
c’2c’2 c’2c’2|d’c’ba gfed|efge dcec|d4 z2:|!
|:a2|a4 f3g|a6 a2|g2g2 f2f2|e2e2 e2g2|\
g4 e3f|g6 g2|fafd egec|d4 z2:|!
|:A2|d6 D2|A2B2 f2a2|f2a2 f2d2|A6 f2|\
g6 eg|fad’c’ bagf|fege dcec|d4 z2:|!
|:f2|g2z2g2 f2z2f2|g2g2 f2f2|e4 z2f2|g2c4 g2|\
fad’c’ bagf|efga bgec|d4 z2:|

